X: 1
T: General Guinness   [D]
R: song
Z: id:hn-song-53
M: 2/4
L: 1/8
K: D
A | "D"Ad dd | de ff | "G"gB BB | B3 \
g | "A7"ge ee | ea ag | "D"fd "A7"ec | "D"d3 :|
